!!!OTL: Ehlicher Dialog (198), S. 433
!!!id: T0380
**kern
*clefG2
*k[f#]
*G:
{16g
=1
16g
8d
8g
8g
8g
=2
8f#
8a
8d
8d}
=3
{8d
8f#
8a
8cc
=4
8b
8dd
4g}
=5
{8d
8g
8g
8g
=6
8f#
8a
8d
8d}
=7
{8d
8f#
8a
8cc
=8
8b
8dd
4g}
=9
{4.a
8b
=10
8a
8g
8f#
8e
=11
4d}
4r
=12
{4.a
16g
16g
=13
8f#
8e
8d
8c
=14
8B
8d
4b}
=15
{4.g
8b
=16
8dd
8dd
8b
8b
=17
4a}
4r
=18
{4.cc
16cc
16cc
=19
8ee
8ee
8dd
8f#
=20
4g}
4r
==
*-
!!!minrhy: 16
!!!meters: 2/4 ]  ZZ[8
!!!cut: Ehlicher Dialog (198), S. 433
!!!reg: Luxemburg
!!!trd: Singendes Volk, Esch-Alzette, 1937 posth.
!!!rhy1:   X_X_X_X_  X_X_X_X_   (x2)
!!!rhy2: X_X_X_X_  X_X_X__
!!!key: T0380  16  G 2/4 ]  ZZ[8
!!!mod: HEPTATONIK IONISCH]  AMBITUS[11
!!!kad: -51-51-5321
!!!akz: -5-7_-53_-5-7_-53_22-5_2-7-3_152_461_
!!!fot: 'a__b__a__b__c__d__e__f__
!!!for: 'a__aw_a__aw_b__c__b__cw_
!!!fok: '^__^a_^__^a_\__Va_^a_^d_
!! PHRAS[VOLLTAKTIG]
!!!fkt: Hochzeits-, Ehestandslied
!!!bem: Burglinster, hhh Eugen Lemmer (Lehrer), 1916
!! THILL; Mathias
!! PR[27] 2K[10] 2G[2] 3K[0] 3G[10] 4A[4] 4Ü[0] 5A[2] 6K[0] 6G[2]
!! 7K[0] 7G[0] 8A[0] MEHR[0] SI[29] ABS[51] SR[12] SP[18]
!! ST[12] 2k[10] 2g[27] 3k[4] 3g[0] 4d[0] 4ü[2] 5d[0] 6k[0] 6g[0]
!! 7k[0] 7g[0] 8d[0] mehr[0] si[43] dm[-14] sr[37] sp[6]
!! 1F[62] 2F[38] 3F[0] 4F[0] LF[0] 2P[0] 3P[0] 4P[0] TRI[0] DF[2] AB[52]
!! TF[0] U3K[0] U3[0] U4[0] U4Ü[0] U5[0] U6K[0] U6[0] U7K[0] U7[0]
!! N1[0] N2K[0] N2[0] N3K[0] N3[13] N4[19] N4Ü[0] N5[29] N6K[0] N6[15]
!!!n7k: 0] N7[6] O1[10] O2K[0] O2[6] O3K[0] O3[2] HÖ[0
